X: 21
T:La Bell Catherine. GS.021
T:Lady Belle Catherine,aka. GS.021
T:Shrewsbury Quarry,aka. GS.021
M:2/4
L:1/8
S:George Spencer m/s, Leeds,1831
R:Misc
O:England
A:Leeds
N:Occurs in the Thomas Hardy tunebook under 'Selected tunes from 'The
N:Entire and Compleat Tutor for the Violin' by Geminiani (Hardy Family)
N:Collection', alt. title 'Come let us sing and Dance - and in Ironbridge
N:Hornpipe, recognisably the same tho' different in detail, alt. title.
N:'Shrewsbury Quarry--  Pa - pause, conventional sign used.
H:1831
Z:vmp.Cherri Graebe
K:D major
z|d2 (f/2e/2).d/2.e/2 | fddB | B2 (e/2f/2).e/2.d/2 | cA A2 | d2 (f/2e/2)
.d
/2.e/2 |! fd dB | Bedc | d2d :||
A/2G/2 | FA AG | FA AG | FA (d/2f/2).e/2.d/2 |! cA A (A/2G/2) | FA A (B/
2c/2) | .d(f/2d/2) .c(e/2c/2) | .d(f/2e/2) .f(e/2d/2) | "Pa"a2 "D. Capo"
A
 ||
